packages/components/src/reaction_icon_bubble/images/bravo.svg

<?xml version="1.0" encoding="UTF-8"?>
<svg width="20px" height="20px" viewBox="0 0 20 20" version="1.1" xmlns="http://www.w3.org/2000/svg" xmlns:xlink="http://www.w3.org/1999/xlink">
    <title>02 Icons/Reactions/Bravo/20x20</title>
    <g id="02-Icons/Reactions/Bravo/20x20" stroke="none" stroke-width="1" fill="none" fill-rule="evenodd">
        <g>
            <circle id="Oval" stroke="#FFFFFF" fill="#008FA0" fill-rule="nonzero" cx="10" cy="10" r="10.5"></circle>
            <path d="M10.4187,14.9684 C10.4187,14.9684 15.9587,11.7513 16.2078,11.5951 C16.5916,11.3551 17.0193,10.9541 16.6939,10.4409 C16.3384,9.8802 15.6328,10.2077 15.4476,10.3179 C15.2624,10.4281 16.1684,9.8816 16.347,9.7753 C16.5256,9.669 17.1727,9.1917 16.8331,8.6211 C16.4935,8.0505 15.772,8.3879 15.5868,8.4981 C15.4016,8.6083 15.6997,8.4297 15.8782,8.3234 C16.0567,8.2171 16.7039,7.7398 16.3643,7.1692 C16.0247,6.5986 15.3033,6.936 15.118,7.0463 C14.9327,7.1566 14.0757,7.6645 14.2543,7.5582 C14.4329,7.4519 15.08,6.9746 14.7404,6.4041 C14.4008,5.8336 13.6793,6.1708 13.4941,6.2811 C13.3089,6.3914 9.0018,8.95 9.0018,8.95 C9.31597983,8.62528677 9.56899894,8.24655418 9.7487,7.832 C9.914,7.1901 9.69875408,7.0034 9.54875408,7.0463 L7.2657,8.37 L7.1057,11.1388 L6.6332,11.3925 L8.831,15.1133 L10.4187,14.9684 Z" id="Path" fill="#FFFFFF" fill-rule="nonzero"></path>
            <path d="M7.2162,12.38 C8.9384,12.2373 12.7572,11.87 12.7572,11.87 L15.6309,10.1969 C15.9952101,9.99689905 16.4514986,10.1004429 16.6938,10.4381 C17.0185,10.9548 16.5904,11.3534 16.2066,11.5945 C15.9557,11.752 10.4199,14.9701 10.4199,14.9701 L8.8306,15.1128 L7.2162,12.38 Z" id="Path" fill="#FFFFFF" fill-rule="nonzero"></path>
            <rect id="Rectangle" fill="#FFFFFF" fill-rule="nonzero" transform="translate(6.748968, 13.838497) rotate(-30.557926) translate(-6.748968, -13.838497) " x="5.60523916" y="10.9693487" width="2.28745856" height="5.73829605" rx="0.1611"></rect>
            <path d="M6.5974,15.1938 L8.1861,15.0484 C8.1861,15.0484 13.7261,11.8313 13.9752,11.6751 C14.359,11.4351 14.7867,11.034 14.4613,10.5209 C14.1058,9.9602 13.4002,10.2877 13.215,10.3979 C13.0298,10.5081 13.9358,9.9615 14.1144,9.8553 C14.293,9.7491 14.9401,9.2716 14.6005,8.7011 C14.2609,8.1306 13.5394,8.4678 13.3542,8.5781 C13.169,8.6884 13.4671,8.5096 13.6456,8.4034 C13.8241,8.2972 14.4713,7.8197 14.1318,7.2492 C13.7923,6.6787 13.0707,7.016 12.8854,7.1262 C12.7001,7.2364 11.8432,7.7445 12.0217,7.6382 C12.2002,7.5319 12.8474,7.0545 12.5078,6.484 C12.1682,5.9135 11.4467,6.2508 11.2615,6.361 C11.0763,6.4712 6.77,9.03 6.77,9.03 C7.08396041,8.70523372 7.33677357,8.32650517 7.5163,7.912 C7.6816,7.2701 7.1019,6.4736 6.9518,6.5165 L5.0333,8.45 L4.8733,11.2188 L4.4,11.4725 L6.5978,15.1933" id="Path" fill="#008FA0" fill-rule="nonzero"></path>
            <path d="M4.9838,12.46 C6.706,12.3173 10.5249,11.95 10.5249,11.95 L13.3985,10.2768 C13.7628343,10.0768197 14.2191283,10.1804077 14.4614,10.5181 C14.7862,11.0348 14.3581,11.4333 13.9742,11.6745 C13.7233,11.8319 8.1875,15.05 8.1875,15.05 L6.5982,15.1927 L4.9838,12.46 Z" id="Path" fill="#008FA0" fill-rule="nonzero"></path>
            <rect id="Rectangle" fill="#008FA0" fill-rule="nonzero" transform="translate(4.516527, 13.918899) rotate(-30.556500) translate(-4.516527, -13.918899) " x="3.37277745" y="11.0496992" width="2.2875" height="5.7384" rx="0.1611"></rect>
            <rect id="Rectangle" stroke="#FFFFFF" stroke-width="0.75" stroke-linecap="round" stroke-linejoin="round" transform="translate(4.516527, 13.918899) rotate(-30.556500) translate(-4.516527, -13.918899) " x="3.37277745" y="11.0496992" width="2.2875" height="5.7384" rx="0.1611"></rect>
            <path d="M4.4705,11.4565 L4.8729,11.2189 L5.0329,8.4501 L6.9518,6.5165 C7.1018,6.4736 7.6818,7.2701 7.5163,7.912 C7.33677357,8.32650517 7.08396041,8.70523372 6.77,9.03 L7.6156,8.53 L8.1499,8.2105" id="Path" stroke="#FFFFFF" stroke-width="0.75" stroke-linecap="round" stroke-linejoin="round"></path>
            <path d="M7.48,8.6036 C7.48,8.6036 11.0762,6.4713 11.2614,6.361 C11.4466,6.2507 12.1681,5.9135 12.5077,6.484 C12.8473,7.0545 12.2,7.5319 12.0217,7.6382 C11.8434,7.7445 9.7317,8.9857 9.7317,8.9857 C9.7317,8.9857 12.7,7.2365 12.8854,7.1262 C13.0708,7.0159 13.7922,6.6787 14.1318,7.2492 C14.4714,7.8197 13.8241,8.2971 13.6456,8.4034 C13.4671,8.5097 10.402,10.2907 10.402,10.2907" id="Path" stroke="#FFFFFF" stroke-width="0.75" stroke-linecap="round" stroke-linejoin="round"></path>
            <path d="M10.402,10.3 C10.402,10.3 13.169,8.6879 13.3542,8.5777 C13.5394,8.4675 14.2609,8.1302 14.6005,8.7007 C14.9401,9.2712 14.2929,9.7486 14.1144,9.8549 C13.9359,9.9612 11.2391,11.5487 11.2391,11.5487 C11.2391,11.5487 13.0298,10.5078 13.215,10.3975 C13.4002,10.2872 14.1058,9.9598 14.4613,10.5205 C14.7867,11.0336 14.359,11.4344 13.9752,11.6747 C13.7257,11.8309 8.1861,15.048 8.1861,15.048 L6.5974,15.1934" id="Path" stroke="#FFFFFF" stroke-width="0.75" stroke-linecap="round" stroke-linejoin="round"></path>
            <line x1="10.4264" y1="3.5117" x2="10.8299" y2="4.5598" id="Path" stroke="#FFFFFF" stroke-width="0.75" stroke-linecap="round" stroke-linejoin="round"></line>
            <line x1="12.5965" y1="3.0885" x2="12.6161" y2="4.2104" id="Path" stroke="#FFFFFF" stroke-width="0.75" stroke-linecap="round" stroke-linejoin="round"></line>
            <line x1="14.7419" y1="3.5609" x2="14.3777" y2="4.6188" id="Path" stroke="#FFFFFF" stroke-width="0.75" stroke-linecap="round" stroke-linejoin="round"></line>
            <line x1="10.4264" y1="3.5117" x2="10.8299" y2="4.5598" id="Path" stroke="#FFFFFF" stroke-linecap="round" stroke-linejoin="round"></line>
            <line x1="12.5965" y1="3.0885" x2="12.6161" y2="4.2104" id="Path" stroke="#FFFFFF" stroke-linecap="round" stroke-linejoin="round"></line>
            <line x1="14.7419" y1="3.5609" x2="14.3777" y2="4.6188" id="Path" stroke="#FFFFFF" stroke-linecap="round" stroke-linejoin="round"></line>
        </g>
    </g>
</svg>

<svg xmlns="http://www.w3.org/2000/svg" width="22" height="22" viewBox="0 0 22 22">
    <g fill="none" fill-rule="evenodd">
        <g>
            <g transform="translate(-121 -15) translate(122 16)">
                <circle cx="10" cy="10" r="10.5" fill="#008FA0" fill-rule="nonzero" stroke="#FFF"/>
                <path fill="#FFF" fill-rule="nonzero" d="M8.83 15.114l1.589-.146s5.54-3.217 5.789-3.373c.384-.24.811-.64.486-1.154-.356-.56-1.061-.233-1.246-.123-.186.11.72-.436.899-.543.179-.106.826-.583.486-1.154-.34-.57-1.061-.233-1.246-.123-.185.11.113-.068.291-.175.179-.106.826-.583.486-1.154-.34-.57-1.06-.233-1.246-.123-.185.11-1.042.619-.864.512.179-.106.826-.583.486-1.154-.34-.57-1.06-.233-1.246-.123L9.002 8.95c.314-.325.567-.703.747-1.118.165-.642-.415-1.438-.565-1.395L7.266 8.37l-.16 2.769-.473.254 2.198 3.72"/>
                <path fill="#FFF" fill-rule="nonzero" d="M7.216 12.38c1.722-.143 5.541-.51 5.541-.51l2.874-1.673c.364-.2.82-.097 1.063.241.325.517-.104.915-.487 1.156-.251.158-5.787 3.376-5.787 3.376l-1.59.143-1.614-2.733z"/>
                <rect width="2.287" height="5.738" x="5.605" y="10.969" fill="#FFF" fill-rule="nonzero" rx=".161" transform="rotate(-30.558 6.749 13.838)"/>
                <path fill="#008FA0" fill-rule="nonzero" d="M6.597 15.194l1.59-.146s5.54-3.217 5.788-3.373c.384-.24.812-.641.486-1.154-.355-.56-1.06-.233-1.246-.123-.185.11.72-.437.9-.543.178-.106.825-.583.486-1.154-.34-.57-1.062-.233-1.247-.123l.292-.175c.178-.106.825-.583.486-1.154-.34-.57-1.061-.233-1.247-.123l-.863.512c.178-.106.825-.583.486-1.154-.34-.57-1.061-.233-1.246-.123L6.77 9.03c.314-.325.567-.703.746-1.118.166-.642-.414-1.438-.564-1.396L5.033 8.45l-.16 2.769-.473.254 2.198 3.72"/>
                <path fill="#008FA0" fill-rule="nonzero" d="M4.984 12.46c1.722-.143 5.54-.51 5.54-.51l2.875-1.673c.364-.2.82-.097 1.062.241.325.517-.103.915-.487 1.156-.25.158-5.787 3.376-5.787 3.376l-1.589.143-1.614-2.733z"/>
                <rect width="2.288" height="5.738" x="3.373" y="11.05" fill="#008FA0" fill-rule="nonzero" rx=".161" transform="rotate(-30.556 4.517 13.919)"/>
                <rect width="2.288" height="5.738" x="3.373" y="11.05" stroke="#FFF" stroke-linecap="round" stroke-linejoin="round" stroke-width=".75" rx=".161" transform="rotate(-30.556 4.517 13.919)"/>
                <path stroke="#FFF" stroke-linecap="round" stroke-linejoin="round" stroke-width=".75" d="M4.47 11.457l.403-.238.16-2.769 1.919-1.933c.15-.043.73.753.564 1.395-.18.415-.432.793-.746 1.118l.846-.5.534-.32"/>
                <path stroke="#FFF" stroke-linecap="round" stroke-linejoin="round" stroke-width=".75" d="M7.48 8.604l3.781-2.243c.186-.11.907-.447 1.247.123.34.57-.308 1.048-.486 1.154-.179.107-2.29 1.348-2.29 1.348l3.153-1.86c.186-.11.907-.447 1.247.123.34.57-.308 1.048-.486 1.154-.179.107-3.244 1.888-3.244 1.888M10.402 10.3s2.767-1.612 2.952-1.722c.185-.11.907-.448 1.247.123.34.57-.308 1.048-.487 1.154l-2.875 1.694s1.79-1.041 1.976-1.151c.185-.11.89-.438 1.246.123.326.513-.102.913-.486 1.154-.25.156-5.789 3.373-5.789 3.373l-1.589.145M10.426 3.512L10.83 4.56M12.597 3.088L12.616 4.21M14.742 3.561L14.378 4.619M10.426 3.512L10.83 4.56M12.597 3.088L12.616 4.21M14.742 3.561L14.378 4.619"/>
            </g>
        </g>
    </g>
</svg>
